X: 183
T:the House of Cairnfield, a Strathspey
B:William Marshall's Scottish Airs, Melodies, Strathspeys, Reels &c (1822)
C:William Marshall
L:1/8
M:C
O:Scotland
R:Strathspey
Z:Clark Bernst + Richard Robinson
%%Page:24 - 3
F:http://richardrobinson.tunebook.org.uk/tune/4026
%%TBL:{"version":1,"type":"tune","id":"4026"}
K:Eb
%%staves {1 2}
V:1
~E>GBe (e/d/)c/d/ B2 | ~B>dfa {a}gf/g/ e2 | \
~g>abg .f.e.d.c |.B.A.G.F [G,E]2 [G,E]2 :|
ge e(f/g/) ac !=!~f2 | (d>e) f/e/d/c/ Bdfa | \
.g.e.a.g .f.e.d.c | .B.A.G.F [G,E]2 [G,E]2 |
ge (ef/g/) ac !=!~f2 | (d>e) f/e/d/c/ Bdfa | \
~g>abg .f.e.d.c |.B.A.G.F [G,E]2 [G,E]2 |]
V:2 middle=d clef=bass
L:1/4
eebb | bbe'e' | e'e'aa | bbee :| \ 
eeaa | bbbb | eeaa | bBee | eeaa | bbbb | eeaabB[Ee] [Ee] |]

